X: 1
T: Wing Commander Donald Mackenzie's
C: Phil Cunningham
M: C|
L: 1/8
R: reel
K: F#min
|: "A"cE E/2E/2E cEBE | "F#m"AFFE FAEA | "D"F2FE FGAB |\
[1,3 "E7"cBAB cffe :|[2 "E7"~c2BG "A"A3B :|[4 "E7"~c2Bc "A"Aa a/2a/2a ||
|: "A"aefe c2Bc | "F#m"AFEF ABce | "D"faba fbaf |\
[1,3 "E7"ecAB BAce :|[2 "E7"ecBc "A"Aa a/2a/2a :|[4 "E7"ecBc "A"A3B |]
